Numix-Circle/48x48/apps/steam_icon_221180.svg

<?xml version="1.0" encoding="UTF-8" standalone="no"?>
<svg
   xmlns:dc="http://purl.org/dc/elements/1.1/"
   xmlns:cc="http://creativecommons.org/ns#"
   xmlns:rdf="http://www.w3.org/1999/02/22-rdf-syntax-ns#"
   xmlns:svg="http://www.w3.org/2000/svg"
   xmlns="http://www.w3.org/2000/svg"
   xmlns:sodipodi="http://sodipodi.sourceforge.net/DTD/sodipodi-0.dtd"
   xmlns:inkscape="http://www.inkscape.org/namespaces/inkscape"
   viewBox="0 0 48 48"
   id="svg2"
   version="1.1"
   inkscape:version="0.91 r13725"
   sodipodi:docname="steam_icon_221180.svg">
  <metadata
     id="metadata69">
    <rdf:RDF>
      <cc:Work
         rdf:about="">
        <dc:format>image/svg+xml</dc:format>
        <dc:type
           rdf:resource="http://purl.org/dc/dcmitype/StillImage" />
      </cc:Work>
    </rdf:RDF>
  </metadata>
  <sodipodi:namedview
     pagecolor="#ffffff"
     bordercolor="#666666"
     borderopacity="1"
     objecttolerance="10"
     gridtolerance="10"
     guidetolerance="10"
     inkscape:pageopacity="0"
     inkscape:pageshadow="2"
     inkscape:window-width="1280"
     inkscape:window-height="998"
     id="namedview67"
     showgrid="false"
     inkscape:zoom="5.6568545"
     inkscape:cx="-5.0988076"
     inkscape:cy="7.5441201"
     inkscape:window-x="0"
     inkscape:window-y="0"
     inkscape:window-maximized="1"
     inkscape:current-layer="svg2">
    <inkscape:grid
       type="xygrid"
       id="grid4214" />
  </sodipodi:namedview>
  <defs
     id="defs4">
    <linearGradient
       id="linearGradient3764"
       x1="1"
       x2="47"
       gradientUnits="userSpaceOnUse"
       gradientTransform="matrix(0,-1,1,0,-1.5e-6,47.999998)">
      <stop
         stop-color="#3d3d3d"
         stop-opacity="1"
         id="stop7" />
      <stop
         offset="1"
         stop-color="#474747"
         stop-opacity="1"
         id="stop9" />
    </linearGradient>
    <clipPath
       id="clipPath-501793429">
      <g
         transform="translate(0,-1004.3622)"
         id="g12">
        <path
           d="m -24 13 c 0 1.105 -0.672 2 -1.5 2 -0.828 0 -1.5 -0.895 -1.5 -2 0 -1.105 0.672 -2 1.5 -2 0.828 0 1.5 0.895 1.5 2 z"
           transform="matrix(15.333333,0,0,11.5,414.99999,878.8622)"
           fill="#1890d0"
           id="path14" />
      </g>
    </clipPath>
    <clipPath
       id="clipPath-511268767">
      <g
         transform="translate(0,-1004.3622)"
         id="g17">
        <path
           d="m -24 13 c 0 1.105 -0.672 2 -1.5 2 -0.828 0 -1.5 -0.895 -1.5 -2 0 -1.105 0.672 -2 1.5 -2 0.828 0 1.5 0.895 1.5 2 z"
           transform="matrix(15.333333,0,0,11.5,414.99999,878.8622)"
           fill="#1890d0"
           id="path19" />
      </g>
    </clipPath>
    <clipPath
       clipPathUnits="userSpaceOnUse"
       id="clipPath4210">
      <circle
         style="opacity:0.1;fill:#000000;fill-opacity:1;fill-rule:nonzero;stroke:none;stroke-width:30.89999962;stroke-linejoin:round;stroke-miterlimit:4;stroke-dasharray:none;stroke-opacity:1"
         id="circle4212"
         cx="-13.878469"
         cy="-24.268711"
         r="12.296468" />
    </clipPath>
  </defs>
  <g
     id="g21">
    <path
       d="m 36.31 5 c 5.859 4.062 9.688 10.831 9.688 18.5 c 0 12.426 -10.07 22.5 -22.5 22.5 c -7.669 0 -14.438 -3.828 -18.5 -9.688 c 1.037 1.822 2.306 3.499 3.781 4.969 c 4.085 3.712 9.514 5.969 15.469 5.969 c 12.703 0 23 -10.298 23 -23 c 0 -5.954 -2.256 -11.384 -5.969 -15.469 c -1.469 -1.475 -3.147 -2.744 -4.969 -3.781 z m 4.969 3.781 c 3.854 4.113 6.219 9.637 6.219 15.719 c 0 12.703 -10.297 23 -23 23 c -6.081 0 -11.606 -2.364 -15.719 -6.219 c 4.16 4.144 9.883 6.719 16.219 6.719 c 12.703 0 23 -10.298 23 -23 c 0 -6.335 -2.575 -12.06 -6.719 -16.219 z"
       id="path23"
       opacity="0.05" />
    <path
       d="m 41.28 8.781 c 3.712 4.085 5.969 9.514 5.969 15.469 c 0 12.703 -10.297 23 -23 23 c -5.954 0 -11.384 -2.256 -15.469 -5.969 c 4.113 3.854 9.637 6.219 15.719 6.219 c 12.703 0 23 -10.298 23 -23 c 0 -6.081 -2.364 -11.606 -6.219 -15.719 z"
       id="path25"
       opacity="0.1" />
    <path
       d="m 31.25 2.375 c 8.615 3.154 14.75 11.417 14.75 21.13 c 0 12.426 -10.07 22.5 -22.5 22.5 c -9.708 0 -17.971 -6.135 -21.12 -14.75 a 23 23 0 0 0 44.875 -7 a 23 23 0 0 0 -16 -21.875 z"
       id="path27"
       opacity="0.2" />
  </g>
  <g
     id="g29"
     style="fill:#f6d8a3;fill-opacity:1">
    <path
       d="m 24 1 c 12.703 0 23 10.297 23 23 c 0 12.703 -10.297 23 -23 23 -12.703 0 -23 -10.297 -23 -23 0 -12.703 10.297 -23 23 -23 z"
       id="path31"
       style="fill:#f6d8a3;fill-opacity:1"
       fill-opacity="1"
       fill="url(#linearGradient3764)" />
  </g>
  <path
     style="fill:#000000;fill-opacity:1;fill-rule:evenodd;stroke:none;stroke-width:1px;stroke-linecap:butt;stroke-linejoin:miter;stroke-opacity:1;opacity:0.1"
     d="M 41.103516 14.673828 L 29.623047 19.498047 L 28.982422 18.445312 L 26.878906 19.724609 L 26.878906 19.722656 L 21.431641 19.222656 L 21.431641 19.212891 L 9.1035156 19.25 L 21.130859 21.732422 L 21.130859 21.736328 L 21.162109 21.738281 L 21.195312 21.746094 L 21.195312 21.742188 L 23.251953 21.931641 L 20.576172 23.558594 C 17.69598 22.632782 15.622466 24.560401 14.390625 26.474609 C 16.169931 25.797101 17.347502 25.190209 19.271484 25.623047 L 19.099609 25.898438 L 21.021484 29.054688 L 21.328125 29.029297 C 20.817622 30.870674 19.750574 31.63429 18.353516 32.882812 C 20.596119 32.671053 23.228412 31.73463 23.769531 28.824219 L 26.443359 27.197266 L 25.652344 29.142578 L 25.650391 29.140625 L 25.648438 29.152344 L 25.644531 29.162109 L 25.646484 29.162109 L 23.837891 39.458984 L 28.005859 30.095703 L 27.998047 30.091797 L 30.074219 24.988281 L 32.181641 23.705078 L 31.542969 22.654297 L 41.103516 14.673828 z "
     id="path4237" />
  <g
     id="g33" />
  <g
     id="g63">
    <path
       d="m 40.03 7.531 c 3.712 4.084 5.969 9.514 5.969 15.469 0 12.703 -10.297 23 -23 23 c -5.954 0 -11.384 -2.256 -15.469 -5.969 4.178 4.291 10.01 6.969 16.469 6.969 c 12.703 0 23 -10.298 23 -23 0 -6.462 -2.677 -12.291 -6.969 -16.469 z"
       id="path65"
       opacity="0.1" />
  </g>
  <path
     style="fill:#fba295;fill-opacity:1;fill-rule:evenodd;stroke:none;stroke-width:1px;stroke-linecap:butt;stroke-linejoin:miter;stroke-opacity:1"
     d="m 40.10268,13.674556 -11.481293,4.822802 1.920291,3.156345 z"
     id="path4218"
     inkscape:connector-curvature="0"
     sodipodi:nodetypes="cccc" />
  <path
     style="fill:#a78d9b;fill-opacity:1;fill-rule:evenodd;stroke:none;stroke-width:1px;stroke-linecap:butt;stroke-linejoin:miter;stroke-opacity:1"
     d="m 13.390952,25.474358 c 2.175097,-0.828214 3.431168,-1.576582 6.279415,-0.41197 l 0.79891,-2.142454 c -3.350991,-1.688089 -5.722115,0.446953 -7.078325,2.554424 z"
     id="path4233"
     inkscape:connector-curvature="0"
     sodipodi:nodetypes="cccc" />
  <path
     sodipodi:nodetypes="cccc"
     inkscape:connector-curvature="0"
     id="path4235"
     d="m 17.353311,31.882491 c 1.735418,-1.550907 2.977445,-2.322359 3.252539,-5.387186 l 2.269915,0.275407 c -0.04132,3.751943 -3.027411,4.876183 -5.522454,5.111779 z"
     style="fill:#a78d9b;fill-opacity:1;fill-rule:evenodd;stroke:none;stroke-width:1px;stroke-linecap:butt;stroke-linejoin:miter;stroke-opacity:1" />
  <rect
     transform="matrix(-0.92632423,-0.37672726,-0.37672726,0.92632423,0,0)"
     y="11.262309"
     x="-35.968975"
     height="5.5413442"
     width="2.5311759"
     id="rect4227"
     style="opacity:1;fill:#a8bb8d;fill-opacity:1;fill-rule:nonzero;stroke:none;stroke-width:30.89999962;stroke-linejoin:round;stroke-miterlimit:4;stroke-dasharray:none;stroke-opacity:1" />
  <rect
     style="opacity:1;fill:#a8bb8d;fill-opacity:1;fill-rule:nonzero;stroke:none;stroke-width:30.89999962;stroke-linejoin:round;stroke-miterlimit:4;stroke-dasharray:none;stroke-opacity:1"
     id="rect4225"
     width="2.5311759"
     height="5.5413442"
     x="16.281746"
     y="-27.480028"
     transform="matrix(-0.09127511,0.99582571,-0.99582571,-0.09127511,0,0)" />
  <path
     style="opacity:1;fill:#dc765f;fill-opacity:1;fill-rule:nonzero;stroke:none;stroke-width:30.89999962;stroke-linejoin:round;stroke-miterlimit:4;stroke-dasharray:none;stroke-opacity:1"
     d="m 27.98129,17.445242 -8.416919,5.120779 -1.052114,0.640098 0.320049,0.526058 -0.732068,1.166154 1.920294,3.156345 1.372162,-0.114041 0.320049,0.526058 1.052115,-0.640097 8.416917,-5.120779 -3.200485,-5.260575 z"
     id="rect4220"
     inkscape:connector-curvature="0" />
  <path
     style="fill:#a78d9b;fill-opacity:1;fill-rule:evenodd;stroke:none;stroke-width:1px;stroke-linecap:butt;stroke-linejoin:miter;stroke-opacity:1"
     d="m 22.836819,38.459253 1.812463,-10.318001 2.356933,0.955107 z"
     id="path4229"
     inkscape:connector-curvature="0" />
  <path
     inkscape:connector-curvature="0"
     id="path4231"
     d="m 8.10268,18.250905 12.092605,2.495361 0.235292,-2.532193 z"
     style="fill:#a78d9b;fill-opacity:1;fill-rule:evenodd;stroke:none;stroke-width:1px;stroke-linecap:butt;stroke-linejoin:miter;stroke-opacity:1"
     sodipodi:nodetypes="cccc" />
</svg>

<svg xmlns="http://www.w3.org/2000/svg" viewBox="0 0 48 48">
 <g>
  <path d="m 36.31 5 c 5.859 4.062 9.688 10.831 9.688 18.5 c 0 12.426 -10.07 22.5 -22.5 22.5 c -7.669 0 -14.438 -3.828 -18.5 -9.688 c 1.037 1.822 2.306 3.499 3.781 4.969 c 4.085 3.712 9.514 5.969 15.469 5.969 c 12.703 0 23 -10.298 23 -23 c 0 -5.954 -2.256 -11.384 -5.969 -15.469 c -1.469 -1.475 -3.147 -2.744 -4.969 -3.781 z m 4.969 3.781 c 3.854 4.113 6.219 9.637 6.219 15.719 c 0 12.703 -10.297 23 -23 23 c -6.081 0 -11.606 -2.364 -15.719 -6.219 c 4.16 4.144 9.883 6.719 16.219 6.719 c 12.703 0 23 -10.298 23 -23 c 0 -6.335 -2.575 -12.06 -6.719 -16.219 z" style="opacity:0.05"/>
  <path d="m 41.28 8.781 c 3.712 4.085 5.969 9.514 5.969 15.469 c 0 12.703 -10.297 23 -23 23 c -5.954 0 -11.384 -2.256 -15.469 -5.969 c 4.113 3.854 9.637 6.219 15.719 6.219 c 12.703 0 23 -10.298 23 -23 c 0 -6.081 -2.364 -11.606 -6.219 -15.719 z" style="opacity:0.1"/>
  <path d="m 31.25 2.375 c 8.615 3.154 14.75 11.417 14.75 21.13 c 0 12.426 -10.07 22.5 -22.5 22.5 c -9.708 0 -17.971 -6.135 -21.12 -14.75 a 23 23 0 0 0 44.875 -7 a 23 23 0 0 0 -16 -21.875 z" style="opacity:0.2"/>
 </g>
 <g style="fill:#f6d8a3;fill-opacity:1">
  <path d="m 24 1 c 12.703 0 23 10.297 23 23 c 0 12.703 -10.297 23 -23 23 -12.703 0 -23 -10.297 -23 -23 0 -12.703 10.297 -23 23 -23 z"/>
 </g>
 <path d="m 41.1 14.674 l -11.48 4.824 l -0.641 -1.053 l -2.104 1.279 l 0 -0.002 l -5.447 -0.5 l 0 -0.001 l -12.328 0.037 l 12.03 2.482 l 0 0.004 l 0.031 0.002 l 0.033 0.008 l 0 -0.004 l 2.057 0.189 l -2.676 1.627 c -2.88 -0.926 -4.954 1 -6.186 2.916 c 1.779 -0.678 2.957 -1.284 4.881 -0.852 l -0.172 0.275 l 1.922 3.156 l 0.307 -0.025 c -0.511 1.841 -1.578 2.605 -2.975 3.854 c 2.243 -0.212 4.875 -1.148 5.416 -4.059 l 2.674 -1.627 l -0.791 1.945 l -0.002 -0.002 l -0.002 0.012 l -0.004 0.001 l 0.002 0 l -1.809 10.297 l 4.168 -9.363 l -0.008 -0.004 l 2.076 -5.104 l 2.107 -1.283 l -0.639 -1.051 l 9.561 -7.98 z" style="fill:#000;opacity:0.1;fill-opacity:1;stroke:none;fill-rule:evenodd"/>
 <g>
  <path d="m 40.03 7.531 c 3.712 4.084 5.969 9.514 5.969 15.469 0 12.703 -10.297 23 -23 23 c -5.954 0 -11.384 -2.256 -15.469 -5.969 4.178 4.291 10.01 6.969 16.469 6.969 c 12.703 0 23 -10.298 23 -23 0 -6.462 -2.677 -12.291 -6.969 -16.469 z" style="opacity:0.1"/>
 </g>
 <path d="m 40.1 13.675 -11.481 4.823 1.92 3.156 z" style="fill:#fba295;fill-opacity:1;stroke:none;fill-rule:evenodd"/>
 <path d="m 13.391 25.474 c 2.175 -0.828 3.431 -1.577 6.279 -0.412 l 0.799 -2.142 c -3.351 -1.688 -5.722 0.447 -7.078 2.554 z" style="fill:#a78d9b;fill-opacity:1;stroke:none;fill-rule:evenodd"/>
 <path d="m 17.353 31.882 c 1.735 -1.551 2.977 -2.322 3.253 -5.387 l 2.27 0.275 c -0.041 3.752 -3.03 4.876 -5.522 5.112 z" style="fill:#a78d9b;fill-opacity:1;stroke:none;fill-rule:evenodd"/>
 <rect transform="matrix(-0.92632423,-0.37672726,-0.37672726,0.92632423,0,0)" y="11.262" x="-35.969" height="5.541" width="2.531" style="fill:#a8bb8d;opacity:1;fill-opacity:1;stroke:none;fill-rule:nonzero"/>
 <rect width="2.531" height="5.541" x="16.282" y="-27.48" transform="matrix(-0.09127511,0.99582571,-0.99582571,-0.09127511,0,0)" style="fill:#a8bb8d;opacity:1;fill-opacity:1;stroke:none;fill-rule:nonzero"/>
 <path d="m 27.981 17.445 -8.417 5.121 -1.052 0.64 0.32 0.526 -0.732 1.166 1.92 3.156 1.372 -0.114 0.32 0.526 1.052 -0.64 8.417 -5.121 -3.2 -5.261 z" style="fill:#dc765f;opacity:1;fill-opacity:1;stroke:none;fill-rule:nonzero"/>
 <path d="m 22.837 38.459 1.812 -10.318 2.357 0.955 z" style="fill:#a78d9b;fill-opacity:1;stroke:none;fill-rule:evenodd"/>
 <path d="m 8.103 18.251 12.09 2.495 0.235 -2.532 z" style="fill:#a78d9b;fill-opacity:1;stroke:none;fill-rule:evenodd"/>
</svg>
